app/assets/images/icons/active/magazine.svg

<?xml version="1.0" encoding="UTF-8" standalone="no"?>
<svg width="32px" height="232px" viewBox="0 0 32 232" version="1.1" xmlns="http://www.w3.org/2000/svg" xmlns:xlink="http://www.w3.org/1999/xlink" xmlns:sketch="http://www.bohemiancoding.com/sketch/ns">
    <title>magazine</title>
    <description>Created with Sketch (http://www.bohemiancoding.com/sketch)</description>
    <defs></defs>
    <g id="Categories" stroke="none" stroke-width="1" fill="none" fill-rule="evenodd" sketch:type="MSPage">
        <path d="M30.2517456,127.018 C26.1724854,125.645 21.7459898,125.646 17.6667296,127.019 C16.8665786,127.287 16.216393,128.107 16,128.936 C15.783607,128.107 15.1334214,127.287 14.3352834,127.018 C10.2560231,125.645 5.82550167,125.646 1.74624143,127.019 C0.7649242,127.346 0,128.507 0,129.491 L0,146.779 C0,147.767 0.7649242,148.211 1.74624143,147.882 C5.82550167,146.508 10.2560231,146.508 14.3352834,147.882 C14.5436246,147.953 14.7378751,147.981 14.9230672,147.983 L14.9230672,148 L17.066868,148 L17.066868,147.983 C17.2520601,147.983 17.4523495,147.955 17.6667296,147.882 C21.7459898,146.508 26.1724854,146.508 30.2517456,147.882 C31.2310499,148.211 32,147.767 32,146.779 L32,129.491 C32,128.507 31.2310499,127.346 30.2517456,127.018 C30.2517456,127.018 31.2310499,127.346 30.2517456,127.018 L30.2517456,127.018 L30.2517456,127.018 Z M14.061521,145.044 C10.1473234,143.788 5.93118198,143.788 2.0189973,145.044 L2.0189973,137.606 C5.93118198,136.353 10.1473234,136.353 14.061521,137.606 L14.061521,145.044 L14.061521,145.044 L14.061521,145.044 L14.061521,145.044 Z M14.061521,135.237 C10.1473234,133.983 5.93118198,133.983 2.0189973,135.238 L2.0189973,133.328 C5.93118198,132.074 10.1473234,132.074 14.061521,133.328 L14.061521,135.237 L14.061521,135.237 L14.061521,135.237 L14.061521,135.237 Z M14.061521,131.483 C10.1473234,130.227 5.93118198,130.227 2.0189973,131.483 L2.0189973,129.574 C5.93118198,128.321 10.1473234,128.321 14.061521,129.573 L14.061521,131.483 L14.061521,131.483 L14.061521,131.483 L14.061521,131.483 Z M17.5821853,129.492 C18.8231742,129.07 20.0983833,128.771 21.3866767,128.603 L21.3866767,134.087 C20.0983833,134.256 18.8231742,134.553 17.5821853,134.978 L17.5821853,129.492 L17.5821853,129.492 L17.5821853,129.492 L17.5821853,129.492 Z M26.5700447,141.613 C23.5626848,141.211 20.4818519,141.507 17.5821853,142.498 L17.5821853,140.813 C20.4818519,139.82 23.5626848,139.526 26.5700447,139.927 L26.5700447,141.613 L26.5700447,141.613 L26.5700447,141.613 L26.5700447,141.613 Z M30.3674907,138.725 C26.2278417,137.305 21.7218343,137.307 17.5821853,138.727 L17.5821853,137.094 C21.7218343,135.667 26.2278417,135.662 30.3674907,137.075 L30.3674907,138.725 L30.3674907,138.725 L30.3674907,138.725 L30.3674907,138.725 Z M30.3674907,134.957 C28.1663207,134.209 25.8624898,133.877 23.5667107,133.932 L23.5667107,132.278 C25.8624898,132.229 28.1663207,132.57 30.3674907,133.322 L30.3674907,134.957 L30.3674907,134.957 Z M30.3674907,134.957" id="magazine--lp-blue" fill="#206FAC" sketch:type="MSShapeGroup"></path>
        <path d="M30.2517456,87.018 C26.1724854,85.645 21.7459898,85.646 17.6667296,87.019 C16.8665786,87.287 16.216393,88.107 16,88.936 C15.783607,88.107 15.1334214,87.287 14.3352834,87.018 C10.2560231,85.645 5.82550167,85.646 1.74624143,87.019 C0.7649242,87.346 0,88.507 0,89.491 L0,106.779 C0,107.767 0.7649242,108.211 1.74624143,107.882 C5.82550167,106.508 10.2560231,106.508 14.3352834,107.882 C14.5436246,107.953 14.7378751,107.981 14.9230672,107.983 L14.9230672,108 L17.066868,108 L17.066868,107.983 C17.2520601,107.983 17.4523495,107.955 17.6667296,107.882 C21.7459898,106.508 26.1724854,106.508 30.2517456,107.882 C31.2310499,108.211 32,107.767 32,106.779 L32,89.491 C32,88.507 31.2310499,87.346 30.2517456,87.018 C30.2517456,87.018 31.2310499,87.346 30.2517456,87.018 L30.2517456,87.018 L30.2517456,87.018 Z M14.061521,105.044 C10.1473234,103.788 5.93118198,103.788 2.0189973,105.044 L2.0189973,97.606 C5.93118198,96.353 10.1473234,96.353 14.061521,97.606 L14.061521,105.044 L14.061521,105.044 L14.061521,105.044 L14.061521,105.044 Z M14.061521,95.237 C10.1473234,93.983 5.93118198,93.983 2.0189973,95.238 L2.0189973,93.328 C5.93118198,92.074 10.1473234,92.074 14.061521,93.328 L14.061521,95.237 L14.061521,95.237 L14.061521,95.237 L14.061521,95.237 Z M14.061521,91.483 C10.1473234,90.227 5.93118198,90.227 2.0189973,91.483 L2.0189973,89.574 C5.93118198,88.321 10.1473234,88.321 14.061521,89.573 L14.061521,91.483 L14.061521,91.483 L14.061521,91.483 L14.061521,91.483 Z M17.5821853,89.492 C18.8231742,89.07 20.0983833,88.771 21.3866767,88.603 L21.3866767,94.087 C20.0983833,94.256 18.8231742,94.553 17.5821853,94.978 L17.5821853,89.492 L17.5821853,89.492 L17.5821853,89.492 L17.5821853,89.492 Z M26.5700447,101.613 C23.5626848,101.211 20.4818519,101.507 17.5821853,102.498 L17.5821853,100.813 C20.4818519,99.82 23.5626848,99.526 26.5700447,99.927 L26.5700447,101.613 L26.5700447,101.613 L26.5700447,101.613 L26.5700447,101.613 Z M30.3674907,98.725 C26.2278417,97.305 21.7218343,97.307 17.5821853,98.727 L17.5821853,97.094 C21.7218343,95.667 26.2278417,95.662 30.3674907,97.075 L30.3674907,98.725 L30.3674907,98.725 L30.3674907,98.725 L30.3674907,98.725 Z M30.3674907,94.957 C28.1663207,94.209 25.8624898,93.877 23.5667107,93.932 L23.5667107,92.278 C25.8624898,92.229 28.1663207,92.57 30.3674907,93.322 L30.3674907,94.957 L30.3674907,94.957 Z M30.3674907,94.957" id="magazine--white" fill="#FFFFFF" sketch:type="MSShapeGroup"></path>
        <path d="M30.2517456,47.018 C26.1724854,45.645 21.7459898,45.646 17.6667296,47.019 C16.8665786,47.287 16.216393,48.107 16,48.936 C15.783607,48.107 15.1334214,47.287 14.3352834,47.018 C10.2560231,45.645 5.82550167,45.646 1.74624143,47.019 C0.7649242,47.346 0,48.507 0,49.491 L0,66.779 C0,67.767 0.7649242,68.211 1.74624143,67.882 C5.82550167,66.508 10.2560231,66.508 14.3352834,67.882 C14.5436246,67.953 14.7378751,67.981 14.9230672,67.983 L14.9230672,68 L17.066868,68 L17.066868,67.983 C17.2520601,67.983 17.4523495,67.955 17.6667296,67.882 C21.7459898,66.508 26.1724854,66.508 30.2517456,67.882 C31.2310499,68.211 32,67.767 32,66.779 L32,49.491 C32,48.507 31.2310499,47.346 30.2517456,47.018 C30.2517456,47.018 31.2310499,47.346 30.2517456,47.018 L30.2517456,47.018 L30.2517456,47.018 Z M14.061521,65.044 C10.1473234,63.788 5.93118198,63.788 2.0189973,65.044 L2.0189973,57.606 C5.93118198,56.353 10.1473234,56.353 14.061521,57.606 L14.061521,65.044 L14.061521,65.044 L14.061521,65.044 L14.061521,65.044 Z M14.061521,55.237 C10.1473234,53.983 5.93118198,53.983 2.0189973,55.238 L2.0189973,53.328 C5.93118198,52.074 10.1473234,52.074 14.061521,53.328 L14.061521,55.237 L14.061521,55.237 L14.061521,55.237 L14.061521,55.237 Z M14.061521,51.483 C10.1473234,50.227 5.93118198,50.227 2.0189973,51.483 L2.0189973,49.574 C5.93118198,48.321 10.1473234,48.321 14.061521,49.573 L14.061521,51.483 L14.061521,51.483 L14.061521,51.483 L14.061521,51.483 Z M17.5821853,49.492 C18.8231742,49.07 20.0983833,48.771 21.3866767,48.603 L21.3866767,54.087 C20.0983833,54.256 18.8231742,54.553 17.5821853,54.978 L17.5821853,49.492 L17.5821853,49.492 L17.5821853,49.492 L17.5821853,49.492 Z M26.5700447,61.613 C23.5626848,61.211 20.4818519,61.507 17.5821853,62.498 L17.5821853,60.813 C20.4818519,59.82 23.5626848,59.526 26.5700447,59.927 L26.5700447,61.613 L26.5700447,61.613 L26.5700447,61.613 L26.5700447,61.613 Z M30.3674907,58.725 C26.2278417,57.305 21.7218343,57.307 17.5821853,58.727 L17.5821853,57.094 C21.7218343,55.667 26.2278417,55.662 30.3674907,57.075 L30.3674907,58.725 L30.3674907,58.725 L30.3674907,58.725 L30.3674907,58.725 Z M30.3674907,54.957 C28.1663207,54.209 25.8624898,53.877 23.5667107,53.932 L23.5667107,52.278 C25.8624898,52.229 28.1663207,52.57 30.3674907,53.322 L30.3674907,54.957 L30.3674907,54.957 Z M30.3674907,54.957" id="magazine--body-grey" fill="#67737B" sketch:type="MSShapeGroup"></path>
        <path d="M30.2517456,7.018 C26.1724854,5.645 21.7459898,5.646 17.6667296,7.019 C16.8665786,7.287 16.216393,8.107 16,8.936 C15.783607,8.107 15.1334214,7.287 14.3352834,7.018 C10.2560231,5.645 5.82550167,5.646 1.74624143,7.019 C0.7649242,7.346 0,8.507 0,9.491 L0,26.779 C0,27.767 0.7649242,28.211 1.74624143,27.882 C5.82550167,26.508 10.2560231,26.508 14.3352834,27.882 C14.5436246,27.953 14.7378751,27.981 14.9230672,27.983 L14.9230672,28 L17.066868,28 L17.066868,27.983 C17.2520601,27.983 17.4523495,27.955 17.6667296,27.882 C21.7459898,26.508 26.1724854,26.508 30.2517456,27.882 C31.2310499,28.211 32,27.767 32,26.779 L32,9.491 C32,8.507 31.2310499,7.346 30.2517456,7.018 C30.2517456,7.018 31.2310499,7.346 30.2517456,7.018 L30.2517456,7.018 L30.2517456,7.018 Z M14.061521,25.044 C10.1473234,23.788 5.93118198,23.788 2.0189973,25.044 L2.0189973,17.606 C5.93118198,16.353 10.1473234,16.353 14.061521,17.606 L14.061521,25.044 L14.061521,25.044 L14.061521,25.044 L14.061521,25.044 Z M14.061521,15.237 C10.1473234,13.983 5.93118198,13.983 2.0189973,15.238 L2.0189973,13.328 C5.93118198,12.074 10.1473234,12.074 14.061521,13.328 L14.061521,15.237 L14.061521,15.237 L14.061521,15.237 L14.061521,15.237 Z M14.061521,11.483 C10.1473234,10.227 5.93118198,10.227 2.0189973,11.483 L2.0189973,9.574 C5.93118198,8.321 10.1473234,8.321 14.061521,9.573 L14.061521,11.483 L14.061521,11.483 L14.061521,11.483 L14.061521,11.483 Z M17.5821853,9.492 C18.8231742,9.07 20.0983833,8.771 21.3866767,8.603 L21.3866767,14.087 C20.0983833,14.256 18.8231742,14.553 17.5821853,14.978 L17.5821853,9.492 L17.5821853,9.492 L17.5821853,9.492 L17.5821853,9.492 Z M26.5700447,21.613 C23.5626848,21.211 20.4818519,21.507 17.5821853,22.498 L17.5821853,20.813 C20.4818519,19.82 23.5626848,19.526 26.5700447,19.927 L26.5700447,21.613 L26.5700447,21.613 L26.5700447,21.613 L26.5700447,21.613 Z M30.3674907,18.725 C26.2278417,17.305 21.7218343,17.307 17.5821853,18.727 L17.5821853,17.094 C21.7218343,15.667 26.2278417,15.662 30.3674907,17.075 L30.3674907,18.725 L30.3674907,18.725 L30.3674907,18.725 L30.3674907,18.725 Z M30.3674907,14.957 C28.1663207,14.209 25.8624898,13.877 23.5667107,13.932 L23.5667107,12.278 C25.8624898,12.229 28.1663207,12.57 30.3674907,13.322 L30.3674907,14.957 L30.3674907,14.957 Z M30.3674907,14.957" id="magazine--title-grey" fill="#3A434E" sketch:type="MSShapeGroup"></path>
    </g>
</svg>

<svg width="32" height="232" viewBox="0 0 32 232" xmlns="http://www.w3.org/2000/svg" xmlns:sketch="http://www.bohemiancoding.com/sketch/ns"><title>magazine</title><g sketch:type="MSPage" fill="none"><path d="M30.252 127.018c-4.079-1.373-8.506-1.372-12.585.001-.8.268-1.45 1.088-1.667 1.917-.216-.829-.867-1.649-1.665-1.918-4.079-1.373-8.51-1.372-12.589.001-.981.327-1.746 1.488-1.746 2.472v17.288c0 .988.765 1.432 1.746 1.103 4.079-1.374 8.51-1.374 12.589 0 .208.071.403.099.588.101v.017h2.144v-.017c.185 0 .385-.028.6-.101 4.079-1.374 8.506-1.374 12.585 0 .979.329 1.748-.115 1.748-1.103v-17.288c0-.984-.769-2.145-1.748-2.473zm-16.19 18.026c-3.914-1.256-8.13-1.256-12.043 0v-7.438c3.912-1.253 8.128-1.253 12.043 0v7.438zm0-9.807c-3.914-1.254-8.13-1.254-12.043.001v-1.91c3.912-1.254 8.128-1.254 12.043 0v1.909zm0-3.754c-3.914-1.256-8.13-1.256-12.043 0v-1.909c3.912-1.253 8.128-1.253 12.043-.001v1.91zm3.521-1.991c1.241-.422 2.516-.721 3.804-.889v5.484c-1.288.169-2.564.466-3.804.891v-5.486zm8.988 12.121c-3.007-.402-6.088-.106-8.988.885v-1.685c2.9-.993 5.98-1.287 8.988-.886v1.686zm3.797-2.888c-4.14-1.42-8.646-1.418-12.785.002v-1.633c4.14-1.427 8.646-1.432 12.785-.019v1.65zm0-3.768c-2.201-.748-4.505-1.08-6.801-1.025v-1.654c2.296-.049 4.6.292 6.801 1.044v1.635zm0 0" fill="#206FAC" sketch:type="MSShapeGroup"/><path d="M30.252 87.018c-4.079-1.373-8.506-1.372-12.585.001-.8.268-1.45 1.088-1.667 1.917-.216-.829-.867-1.649-1.665-1.918-4.079-1.373-8.51-1.372-12.589.001-.981.327-1.746 1.488-1.746 2.472v17.288c0 .988.765 1.432 1.746 1.103 4.079-1.374 8.51-1.374 12.589 0 .208.071.403.099.588.101v.017h2.144v-.017c.185 0 .385-.028.6-.101 4.079-1.374 8.506-1.374 12.585 0 .979.329 1.748-.115 1.748-1.103v-17.288c0-.984-.769-2.145-1.748-2.473zm-16.19 18.026c-3.914-1.256-8.13-1.256-12.043 0v-7.438c3.912-1.253 8.128-1.253 12.043 0v7.438zm0-9.807c-3.914-1.254-8.13-1.254-12.043.001v-1.91c3.912-1.254 8.128-1.254 12.043 0v1.909zm0-3.754c-3.914-1.256-8.13-1.256-12.043 0v-1.909c3.912-1.253 8.128-1.253 12.043-.001v1.91zm3.521-1.991c1.241-.422 2.516-.721 3.804-.889v5.484c-1.288.169-2.564.466-3.804.891v-5.486zm8.988 12.121c-3.007-.402-6.088-.106-8.988.885v-1.685c2.9-.993 5.98-1.287 8.988-.886v1.686zm3.797-2.888c-4.14-1.42-8.646-1.418-12.785.002v-1.633c4.14-1.427 8.646-1.432 12.785-.019v1.65zm0-3.768c-2.201-.748-4.505-1.08-6.801-1.025v-1.654c2.296-.049 4.6.292 6.801 1.044v1.635zm0 0" fill="#fff" sketch:type="MSShapeGroup"/><path d="M30.252 47.018c-4.079-1.373-8.506-1.372-12.585.001-.8.268-1.45 1.088-1.667 1.917-.216-.829-.867-1.649-1.665-1.918-4.079-1.373-8.51-1.372-12.589.001-.981.327-1.746 1.488-1.746 2.472v17.288c0 .988.765 1.432 1.746 1.103 4.079-1.374 8.51-1.374 12.589 0 .208.071.403.099.588.101v.017h2.144v-.017c.185 0 .385-.028.6-.101 4.079-1.374 8.506-1.374 12.585 0 .979.329 1.748-.115 1.748-1.103v-17.288c0-.984-.769-2.145-1.748-2.473zm-16.19 18.026c-3.914-1.256-8.13-1.256-12.043 0v-7.438c3.912-1.253 8.128-1.253 12.043 0v7.438zm0-9.807c-3.914-1.254-8.13-1.254-12.043.001v-1.91c3.912-1.254 8.128-1.254 12.043 0v1.909zm0-3.754c-3.914-1.256-8.13-1.256-12.043 0v-1.909c3.912-1.253 8.128-1.253 12.043-.001v1.91zm3.521-1.991c1.241-.422 2.516-.721 3.804-.889v5.484c-1.288.169-2.564.466-3.804.891v-5.486zm8.988 12.121c-3.007-.402-6.088-.106-8.988.885v-1.685c2.9-.993 5.98-1.287 8.988-.886v1.686zm3.797-2.888c-4.14-1.42-8.646-1.418-12.785.002v-1.633c4.14-1.427 8.646-1.432 12.785-.019v1.65zm0-3.768c-2.201-.748-4.505-1.08-6.801-1.025v-1.654c2.296-.049 4.6.292 6.801 1.044v1.635zm0 0" fill="#67737B" sketch:type="MSShapeGroup"/><path d="M30.252 7.018c-4.079-1.373-8.506-1.372-12.585.001-.8.268-1.45 1.088-1.667 1.917-.216-.829-.867-1.649-1.665-1.918-4.079-1.373-8.51-1.372-12.589.001-.981.327-1.746 1.488-1.746 2.472v17.288c0 .988.765 1.432 1.746 1.103 4.079-1.374 8.51-1.374 12.589 0 .208.071.403.099.588.101v.017h2.144v-.017c.185 0 .385-.028.6-.101 4.079-1.374 8.506-1.374 12.585 0 .979.329 1.748-.115 1.748-1.103v-17.288c0-.984-.769-2.145-1.748-2.473zm-16.19 18.026c-3.914-1.256-8.13-1.256-12.043 0v-7.438c3.912-1.253 8.128-1.253 12.043 0v7.438zm0-9.807c-3.914-1.254-8.13-1.254-12.043.001v-1.91c3.912-1.254 8.128-1.254 12.043 0v1.909zm0-3.754c-3.914-1.256-8.13-1.256-12.043 0v-1.909c3.912-1.253 8.128-1.253 12.043-.001v1.91zm3.521-1.991c1.241-.422 2.516-.721 3.804-.889v5.484c-1.288.169-2.564.466-3.804.891v-5.486zm8.988 12.121c-3.007-.402-6.088-.106-8.988.885v-1.685c2.9-.993 5.98-1.287 8.988-.886v1.686zm3.797-2.888c-4.14-1.42-8.646-1.418-12.785.002v-1.633c4.14-1.427 8.646-1.432 12.785-.019v1.65zm0-3.768c-2.201-.748-4.505-1.08-6.801-1.025v-1.654c2.296-.049 4.6.292 6.801 1.044v1.635zm0 0" fill="#3A434E" sketch:type="MSShapeGroup"/></g></svg>
